X: 20061
M: 3/4
L: 1/8
K: Bb
c=Bcdec | _BABcdB | c=Bcdec | B4 :|
|: f2 |\
b2 baba | b2 baba | g2 g^fgf | g3 fed |\
c2 c=Bcd | d=efgab | ~B4 dc | B4 :|
|: (3(Bcd) |\
fffbdf | BBBdFd | ccceAc | Bdgf=ef |\
fffbdf | BBBdFd | ccceAc | B4 :|
|: FA |\
cccdBc | AAABGA | FFFG=EG | F4 (3(ede) |\
fffbdf | BBBdFd | ccceAc | B4 :|


